icon/lg/feathersjs.svg

<svg width="256" height="256" xmlns="http://www.w3.org/2000/svg" preserveAspectRatio="xMidYMid"><path d="M128 9.102c65.665 0 118.898 53.233 118.898 118.898 0 65.665-53.233 118.898-118.898 118.898C62.335 246.898 9.102 193.665 9.102 128 9.102 62.335 62.335 9.102 128 9.102M128 0C57.421 0 0 57.421 0 128c0 70.579 57.421 128 128 128 70.579 0 128-57.421 128-128C256 57.421 198.579 0 128 0m20.83 25.524c-10.43-1.896-35.651 36.409-43.994 59.734-.634 1.769-2.086 8.249-2.086 9.955 0 0 6.531 14.055 8.343 17.351-3.034-1.58-9.323-13.756-9.323-13.756-3.034 5.784-5.942 32.34-4.994 37.271 0 0 6.762 10.062 9.387 12.578-3.603-1.201-9.671-9.355-9.671-9.355-1.138 3.508-.916 10.807-.379 13.274 4.551 6.637 10.619 7.396 10.619 7.396s-6.637 66.181 3.413 71.111c6.258-1.327 7.775-73.956 7.775-73.956s7.585.569 9.292-1.327c3.856-2.655 12.826-30.224 12.958-34.202 0 0-10.41 1.952-15.487 3.924 3.826-3.8 16.049-6.352 16.049-6.352 3.315-3.979 10.291-31.047 10.994-39.391.176-2.093.583-4.657.268-8.398 0 0-9.941 2.177-12.014 1.424 2.104-.237 12.263-4.14 12.263-4.14 1.801-16.213 2.358-42.091-3.413-43.141Zm-36.38 171.691c-.795 19.496-1.294 25.004-2.115 29.601-.379.857-.758.997-1.138-.095-3.477-15.992-3.224-136.438 36.409-191.241-23.05 42.092-33.535 122.861-33.156 161.735Z" fill="#333"/></svg>

<?xml version="1.0" encoding="UTF-8" standalone="no"?>
<svg viewBox="0 0 256 256" version="1.1" xmlns="http://www.w3.org/2000/svg" xmlns:xlink="http://www.w3.org/1999/xlink" preserveAspectRatio="xMidYMid" height="1em" width="1em">
  <g>
    <path d="M128,9.102 C193.665,9.102 246.898,62.335 246.898,128 C246.898,193.665 193.665,246.898 128,246.898 C62.335,246.898 9.102,193.665 9.102,128 C9.102,62.335 62.335,9.102 128,9.102 M128,0 C57.421,0 0,57.421 0,128 C0,198.579 57.421,256 128,256 C198.579,256 256,198.579 256,128 C256,57.421 198.579,0 128,0 M148.83,25.524 C138.4,23.628 113.179,61.933 104.836,85.258 C104.202,87.027 102.75,93.507 102.75,95.213 C102.75,95.213 109.281,109.268 111.093,112.564 C108.059,110.984 101.77,98.808 101.77,98.808 C98.736,104.592 95.828,131.148 96.776,136.079 C96.776,136.079 103.538,146.141 106.163,148.657 C102.56,147.456 96.492,139.302 96.492,139.302 C95.354,142.81 95.576,150.109 96.113,152.576 C100.664,159.213 106.732,159.972 106.732,159.972 C106.732,159.972 100.095,226.153 110.145,231.083 C116.403,229.756 117.92,157.127 117.92,157.127 C117.92,157.127 125.505,157.696 127.212,155.8 C131.068,153.145 140.038,125.576 140.17,121.598 C140.17,121.598 129.76,123.55 124.683,125.522 C128.509,121.722 140.732,119.17 140.732,119.17 C144.047,115.191 151.023,88.123 151.726,79.779 C151.902,77.686 152.309,75.122 151.994,71.381 C151.994,71.381 142.053,73.558 139.98,72.805 C142.084,72.568 152.243,68.665 152.243,68.665 C154.044,52.452 154.601,26.574 148.83,25.524 L148.83,25.524 Z M112.45,197.215 C111.655,216.711 111.156,222.219 110.335,226.816 C109.956,227.673 109.577,227.813 109.197,226.721 C105.72,210.729 105.973,90.283 145.606,35.48 C122.556,77.572 112.071,158.341 112.45,197.215 L112.45,197.215 Z" fill="#333333"/>
  </g>
</svg>
